!!!SOCIAL_FUNCTION:	parade songs
!!!PDT:	1922
!!!OTL: No_85_Parade_Song_(c).krn
!!!REG: Southwest
!!!LANG: Non-Tone
!!!LING_GROUP: Uto-Aztecan
**kern
*staff1
=1-
=
*clefF4
*k[]
*M2/4
8d\L
8c\J
4d\
=2||
*M3/4
2d\
8c\L
8c\J
=3||
*M2/4
8.e\L
16d\Jk
16c\LK
8.c\J
=4
8.c\L
16A\Jk
4G\
=5
8.c\L
16A\Jk
4c\
=6||
*M3/4
2c\
8A\L
8A\J
=7||
*M2/4
8.c\L
16A\Jk
16G\LK
8.G\J
=8
8.G\L
16E\Jk
4C/
=9
8.G\L
16E\Jk
4G\
=10||
*M3/4
[2G\
8G\L]
16E\L
16E\JJ
=11
8.A\L
16G\Jk
16F\LK
8.F\J
8.F\L
16E\Jk
=12||
*M2/4
4C/
4C/
=13
8C/L
8C/J
8.C/L
16c/Jk
=14||
*M3/4
16c\LK
8.A\J
16A\LK
8.G\J
8G\L
8G\J
=15
2G\
4G\
==:|!
*-
